X:1
T:The Boys of Malin
D:Deaf Sheperd: Synergy (1997)
M:2/2
R:Reel
K:D
|: DEFG ADFA | BAGB AGFE | DEFG ADFA |1 BGEF G2FE :|2 BGEF GABc |:
  dDDD ADDD | dDDD A2Bc | dDDD ADDA |1 BGEF GABc :|2 BGEF G2FE |:
  DAFA DAFA | DAFA G2FE |1 DAFA DAFA | BGEF G2FE :|2 DEFG ADFA | BGEF G2FE ||
